packages/crs-framework/resources/svg/add-circle-outline.svg

<svg width="24" height="24" xmlns="http://www.w3.org/2000/svg"><path d="M12 7c-.55 0-1 .45-1 1v3H8c-.55 0-1 .45-1 1s.45 1 1 1h3v3c0 .55.45 1 1 1s1-.45 1-1v-3h3c.55 0 1-.45 1-1s-.45-1-1-1h-3V8c0-.55-.45-1-1-1Zm0-5C6.48 2 2 6.48 2 12s4.48 10 10 10 10-4.48 10-10S17.52 2 12 2Zm0 18c-4.41 0-8-3.59-8-8s3.59-8 8-8 8 3.59 8 8-3.59 8-8 8Z"/></svg>

<svg width="24" height="24" viewBox="0 0 24 24" fill="none" xmlns="http://www.w3.org/2000/svg">
<path d="M12 7C11.45 7 11 7.45 11 8V11H8C7.45 11 7 11.45 7 12C7 12.55 7.45 13 8 13H11V16C11 16.55 11.45 17 12 17C12.55 17 13 16.55 13 16V13H16C16.55 13 17 12.55 17 12C17 11.45 16.55 11 16 11H13V8C13 7.45 12.55 7 12 7ZM12 2C6.48 2 2 6.48 2 12C2 17.52 6.48 22 12 22C17.52 22 22 17.52 22 12C22 6.48 17.52 2 12 2ZM12 20C7.59 20 4 16.41 4 12C4 7.59 7.59 4 12 4C16.41 4 20 7.59 20 12C20 16.41 16.41 20 12 20Z" fill="#272C37"/>
</svg>
